src/Assets/CarouselThreeNext.svg

<svg height="19" viewBox="0 0 35 19" width="35" xmlns="http://www.w3.org/2000/svg"><path d="m93.632154 10.592052-8.034702-8.216382c-.490191-.50117-1.285245-.50117-1.775475 0-.490269.501423-.490269 1.314588 0 1.815482l5.891574 6.025011h-29.458104c-.693342 0-1.255449.575046-1.255449 1.283768 0 .709251.562107 1.283745 1.255449 1.283745h29.458104l-5.89134 6.024758c-.490347.501699-.490347 1.314059 0 1.815758.245154.250309.566397.375866.887757.375866.321243 0 .642525-.125557.88764-.375866l8.034546-8.216382c.490347-.501699.490347-1.314335 0-1.815758z" fill="#880d1e" fill-rule="evenodd" transform="translate(-59 -2)"/></svg>

<?xml version="1.0" encoding="UTF-8"?>
<svg width="35px" height="19px" viewBox="0 0 35 19" version="1.1" xmlns="http://www.w3.org/2000/svg" xmlns:xlink="http://www.w3.org/1999/xlink">
    <!-- Generator: Sketch 53.2 (72643) - https://sketchapp.com -->
    <title>arrow #2</title>
    <desc>Created with Sketch.</desc>
    <g id="HomePage" stroke="none" stroke-width="1" fill="none" fill-rule="evenodd">
        <g id="HomePage-Desktop-HD" transform="translate(-1187.000000, -862.000000)" fill="#880D1E">
            <g id="Section-3-:-News" transform="translate(0.000000, 812.000000)">
                <g id="Group-7" transform="translate(217.000000, 41.000000)">
                    <g id="arrow" transform="translate(911.000000, 7.000000)">
                        <path d="M93.632154,10.592052 L85.597452,2.37567 C85.107261,1.8745 84.312207,1.8745 83.821977,2.37567 C83.331708,2.877093 83.331708,3.690258 83.821977,4.191152 L89.713551,10.216163 L60.255447,10.216163 C59.562105,10.216163 58.999998,10.791209 58.999998,11.499931 C58.999998,12.209182 59.562105,12.783676 60.255447,12.783676 L89.713551,12.783676 L83.822211,18.808434 C83.331864,19.310133 83.331864,20.122493 83.822211,20.624192 C84.067365,20.874501 84.388608,21.000058 84.709968,21.000058 C85.031211,21.000058 85.352493,20.874501 85.597608,20.624192 L93.632154,12.40781 C94.122501,11.906111 94.122501,11.093475 93.632154,10.592052 Z" id="arrow-#2"></path>
                    </g>
                </g>
            </g>
        </g>
    </g>
</svg>
